X: 354
T:Martin Wynnes #3
R:reel
C:Trad.
S:Matt Molloy &amp; Frankie Gavin Live 1/88
M:C|
L:1/8
Z:Andrew Le Blanc
K:G
dged B2Ac |BGDG E~A3 |BGdB cAec |dfaf gfeB|
dged B2Ac |BGDG E~A3 |BGdB cAec |1 dfaf g4:|2 dfaf g2Bd||
~g3a gfeB |dged BGBd |~g3a gfeB |dega bgg2 |
gbaf gfeB |dged BGG2 |dggf gfeB |1 dfaf g2Bd:|2 dfaf  g4||


